X:1
T: Cullen House
C:William Marshall
R:Strathspey
Q: 128
K:Am
M:4/4
L:1/16
|:c2|A,3A c3A GGG2 B4|AAA2 A3B ABcd e2c2|d3B c3A GGG2 B3d|e3c d3B cA3 A2c2|
A,3A c3A GGG2 B4|AAA2 A3B ABcd e2c2|d3B c3A GGG2 B3d|e3c d3B cA3 A2f2|
g2g2 ag^fe dG3 B4|a3e ea3 g2b2 a2^f2|g2g2 ag^fe d2G2 B2d2|e3c d3B cA3 A2f2|
g2g2 ag^fe dG3 B4|a3e ea3 g2b2 a2^f2|g2b2 e2g2 d2G2 B2d2|ec3 d3B cA3 A2:|
